X: 562
T: Cliffs of Moher
B: good tune book
B: tunes
M:6/8
R: jig
Q: 3/8=100
K:Adorian
V:1 
|:"Am"eaa bag|"Am"eaf ged|c2A "G"BAG|"Em"EFG "G"ABd|
 "Am"eaa bag|"Am"eaf ged|c2A "G"BAG|"Em"EFG "Am"A3:|
 |:"Am"e2e dBA|"Am"e2e dBA|"G"GAB dBA|"G"GAB dBd|
 [1 "Am"e2e dBA|"Am"e2e dBA|"G"GAB dBG|"Em"EFG "Am"A3:|
 [2 "Am"e2e "G"dee|"F"cee "Em"Bee|"G"EFG BAG|"Em"EDB, "Am"A,3||
% abcbook-tune_id 63dce256f94727463c4908c8
% abcbook-tune_composer_id 
% abcbook-link-0 https://www.youtube.com/watch?v=mLfYTQ5lkPY
% abcbook-link-title-0 Cliffs of Moher
% abcbook-boost 0
% abcbook-difficulty 0
% abcbook-tags good tune book
% abcbook-tablature 
% abcbook-transpose 
% abcbook-tuning 
% abcbook-lastupdated 1675425647112
% abcbook-soundfonts 
% abcbook-repeats 1


